X:1
T:Title
%%score ( 1 2 ) ( 3 4 )
L:1/8
Q:1/4=110
M:4/4
K:Db
V:1 treble nm="Grand Piano, Soprano"
V:2 treble 
V:3 bass nm="Choir Pad, Bass"
V:4 bass 
V:1
 [DA]2 [Fd]2 [Fd]2 [Fd]2 | [GB]2 [FA]2 [DF]2 [FA]2 | [Fd]2 [Ec]2- [Ec][Fd] [Ge]2- | %3
w: By~Willie~York * * *|||
 [Ge][Ge] [Fd]6 | [FA]2 [Fd]2 [Fd]2 [Fd]2 | [GB]2 [FA]2 [DF]2 [FA]2 | %6
w: |||
 [Fd]2 [Ec]2- [Ec][Fd] [Ge]2- | [Ge][Ge] [Fd]6 |[Q:1/4=105] [Af]2 [Fd]>[Fd] [Fd]>[GB] [FA]2 | %9
w: |||
 [DF]2 [FA]>[GB] [FA]>[DF] [FA]2 | [Fd]2 [Ec]>[Ec] [Ec]>[Fd] [Ge]2 | %11
w: ||
 [GA]2 [Fd]>[FA] [Ad]>[Ae] [Af]2 | [Af]2 [Fd]>[Fd] [Fd]>[GB] [FA]2 | %13
w: ||
 [DF]2 [FA]>[GB] [FA]>[DF] [FA]2 | .d2 z2 z4 | z2 d6- | d6 z2 |] %17
w: ||||
V:2
 x8 | x8 | x8 | x8 | x8 | x8 | x8 | x8 | x8 | x8 | x8 | x8 | x8 | x8 | %14
 A-[Ae] [Af]2- [Af][Ad] [Af]2 | [Ge]2 F2 G2 F2- | F6 z2 |] %17
V:3
 [D,F,]2 [D,A,]2 [D,A,]2 [D,A,]2 | [D,D]2 [D,D]2 [D,B,]2 [D,D]2 | [D,A,]2 A,2- A,/ z/ A, A,2- | %3
 A,A, [D,A,]6 | [D,D]2 [D,A,]2 [D,A,]2 [D,A,]2 | [D,D]2 [D,D]2 [D,A,]2 [D,D]2 | %6
 [D,A,]2 A,2- A,/ z/ A, A,2- | A,A, [D,A,]6 | [D,D]2 [D,A,]>[D,A,] [D,A,]>[D,D] [D,D]2 | %9
 [D,A,]2 [D,D]>[D,D] [D,D]>[D,A,] [D,D]2 | [D,A,]2 A,>A, A,>A, A,2 | %11
 A,2 [D,A,]>[D,D] [F,D]>[A,C] D2 | [D,D]2 [D,A,]>[D,A,] [D,A,]>[D,D] [D,D]2 | %13
 [D,A,]2 [D,D]>[D,D] [D,D]>[D,A,] [D,D]2 | [F,D][A,C] D2- D/ z/ [F,D] [A,D]2 | z2 A,2 z4 | z8 |] %17
V:4
 x8 | x8 | x8 | x8 | x8 | x8 | x8 | x8 | x8 | x8 | x8 | x8 | x8 | x8 | x8 | %15
 [A,,A,]2 D,2- [D,-B,]2 [D,A,]2- | [D,A,]6 z2 |] %17

